dist/img/conditions/conditions_2.svg

<svg width="44" height="44" viewBox="0 0 44 44" fill="none" xmlns="http://www.w3.org/2000/svg">
<path d="M19.7085 41.25H24.3285C26.0885 41.25 27.2251 40.0033 26.8951 38.4817L26.1434 35.1635H17.8934L17.1418 38.4817C16.8118 39.9117 18.0585 41.25 19.7085 41.25Z" stroke="url(#paint0_linear_439_3706)" stroke-width="2" stroke-linecap="round" stroke-linejoin="round"/>
<path d="M26.1434 35.1451L29.3151 32.3217C31.0934 30.745 31.1668 29.6449 29.7551 27.8666L24.1634 20.7717C22.9901 19.2867 21.0651 19.2867 19.8918 20.7717L14.3001 27.8666C12.8884 29.6449 12.8884 30.8 14.7401 32.3217L17.9118 35.1451" stroke="url(#paint1_linear_439_3706)" stroke-width="2" stroke-linecap="round" stroke-linejoin="round"/>
<path d="M22.0184 20.3867V25.0251" stroke="url(#paint2_linear_439_3706)" stroke-width="2" stroke-linecap="round" stroke-linejoin="round"/>
<path d="M22.9533 9.16663H21.12C20.1117 9.16663 19.2867 8.34163 19.2867 7.33329V5.49996C19.2867 4.49163 20.1117 3.66663 21.12 3.66663H22.9533C23.9617 3.66663 24.7867 4.49163 24.7867 5.49996V7.33329C24.7867 8.34163 23.9617 9.16663 22.9533 9.16663Z" stroke="url(#paint3_linear_439_3706)" stroke-width="2" stroke-linecap="round" stroke-linejoin="round"/>
<path d="M5.99505 25.9783H7.82838C8.83671 25.9783 9.66171 25.1533 9.66171 24.1449V22.3116C9.66171 21.3033 8.83671 20.4781 7.82838 20.4781H5.99505C4.98671 20.4781 4.16171 21.3033 4.16171 22.3116V24.1449C4.16171 25.1533 4.98671 25.9783 5.99505 25.9783Z" stroke="url(#paint4_linear_439_3706)" stroke-width="2" stroke-linecap="round" stroke-linejoin="round"/>
<path d="M38.005 25.9783H36.1717C35.1633 25.9783 34.3383 25.1533 34.3383 24.1449V22.3116C34.3383 21.3033 35.1633 20.4781 36.1717 20.4781H38.005C39.0133 20.4781 39.8383 21.3033 39.8383 22.3116V24.1449C39.8383 25.1533 39.0133 25.9783 38.005 25.9783Z" stroke="url(#paint5_linear_439_3706)" stroke-width="2" stroke-linecap="round" stroke-linejoin="round"/>
<path d="M19.2867 6.52673C12.3017 7.35173 6.875 13.2734 6.875 20.4784" stroke="url(#paint6_linear_439_3706)" stroke-width="2" stroke-linecap="round" stroke-linejoin="round"/>
<path d="M37.125 20.4784C37.125 13.2917 31.735 7.3884 24.7867 6.52673" stroke="url(#paint7_linear_439_3706)" stroke-width="2" stroke-linecap="round" stroke-linejoin="round"/>
<defs>
<linearGradient id="paint0_linear_439_3706" x1="17.0886" y1="38.2067" x2="26.9521" y2="38.2067" gradientUnits="userSpaceOnUse">
<stop stop-color="#B68C74"/>
<stop offset="1" stop-color="#865F46"/>
</linearGradient>
<linearGradient id="paint1_linear_439_3706" x1="13.2908" y1="27.4015" x2="30.7391" y2="27.4015" gradientUnits="userSpaceOnUse">
<stop stop-color="#B68C74"/>
<stop offset="1" stop-color="#865F46"/>
</linearGradient>
<linearGradient id="paint2_linear_439_3706" x1="22.0184" y1="22.7059" x2="23.0184" y2="22.7059" gradientUnits="userSpaceOnUse">
<stop stop-color="#B68C74"/>
<stop offset="1" stop-color="#865F46"/>
</linearGradient>
<linearGradient id="paint3_linear_439_3706" x1="19.2867" y1="6.41663" x2="24.7867" y2="6.41663" gradientUnits="userSpaceOnUse">
<stop stop-color="#B68C74"/>
<stop offset="1" stop-color="#865F46"/>
</linearGradient>
<linearGradient id="paint4_linear_439_3706" x1="4.16171" y1="23.2282" x2="9.66171" y2="23.2282" gradientUnits="userSpaceOnUse">
<stop stop-color="#B68C74"/>
<stop offset="1" stop-color="#865F46"/>
</linearGradient>
<linearGradient id="paint5_linear_439_3706" x1="34.3383" y1="23.2282" x2="39.8383" y2="23.2282" gradientUnits="userSpaceOnUse">
<stop stop-color="#B68C74"/>
<stop offset="1" stop-color="#865F46"/>
</linearGradient>
<linearGradient id="paint6_linear_439_3706" x1="6.875" y1="13.5026" x2="19.2867" y2="13.5026" gradientUnits="userSpaceOnUse">
<stop stop-color="#B68C74"/>
<stop offset="1" stop-color="#865F46"/>
</linearGradient>
<linearGradient id="paint7_linear_439_3706" x1="24.7867" y1="13.5026" x2="37.125" y2="13.5026" gradientUnits="userSpaceOnUse">
<stop stop-color="#B68C74"/>
<stop offset="1" stop-color="#865F46"/>
</linearGradient>
</defs>
</svg>

<svg width="44" height="44" viewBox="0 0 44 44" fill="none" xmlns="http://www.w3.org/2000/svg"><path d="M19.709 41.25h4.62c1.76 0 2.896-1.247 2.566-2.768l-.752-3.319h-8.25l-.751 3.319c-.33 1.43.916 2.768 2.567 2.768z" stroke="url(#paint0_linear_439_3706)" stroke-width="2" stroke-linecap="round" stroke-linejoin="round"/><path d="M26.143 35.145l3.172-2.823c1.778-1.577 1.852-2.677.44-4.455l-5.592-7.095c-1.173-1.485-3.098-1.485-4.271 0L14.3 27.867c-1.412 1.778-1.412 2.933.44 4.455l3.172 2.823" stroke="url(#paint1_linear_439_3706)" stroke-width="2" stroke-linecap="round" stroke-linejoin="round"/><path d="M22.018 20.387v4.638" stroke="url(#paint2_linear_439_3706)" stroke-width="2" stroke-linecap="round" stroke-linejoin="round"/><path d="M22.953 9.167H21.12a1.839 1.839 0 01-1.833-1.834V5.5c0-1.008.825-1.833 1.833-1.833h1.833c1.009 0 1.834.825 1.834 1.833v1.833a1.839 1.839 0 01-1.834 1.834z" stroke="url(#paint3_linear_439_3706)" stroke-width="2" stroke-linecap="round" stroke-linejoin="round"/><path d="M5.995 25.978h1.833a1.839 1.839 0 001.834-1.833v-1.833a1.839 1.839 0 00-1.834-1.834H5.995a1.839 1.839 0 00-1.833 1.834v1.833c0 1.008.825 1.833 1.833 1.833z" stroke="url(#paint4_linear_439_3706)" stroke-width="2" stroke-linecap="round" stroke-linejoin="round"/><path d="M38.005 25.978h-1.833a1.839 1.839 0 01-1.834-1.833v-1.833c0-1.009.825-1.834 1.834-1.834h1.833c1.008 0 1.833.825 1.833 1.834v1.833a1.839 1.839 0 01-1.833 1.833z" stroke="url(#paint5_linear_439_3706)" stroke-width="2" stroke-linecap="round" stroke-linejoin="round"/><path d="M19.287 6.527c-6.985.825-12.412 6.746-12.412 13.951" stroke="url(#paint6_linear_439_3706)" stroke-width="2" stroke-linecap="round" stroke-linejoin="round"/><path d="M37.125 20.478c0-7.186-5.39-13.09-12.338-13.951" stroke="url(#paint7_linear_439_3706)" stroke-width="2" stroke-linecap="round" stroke-linejoin="round"/><defs><linearGradient id="paint0_linear_439_3706" x1="17.089" y1="38.207" x2="26.952" y2="38.207" gradientUnits="userSpaceOnUse"><stop stop-color="#B68C74"/><stop offset="1" stop-color="#865F46"/></linearGradient><linearGradient id="paint1_linear_439_3706" x1="13.291" y1="27.401" x2="30.739" y2="27.401" gradientUnits="userSpaceOnUse"><stop stop-color="#B68C74"/><stop offset="1" stop-color="#865F46"/></linearGradient><linearGradient id="paint2_linear_439_3706" x1="22.018" y1="22.706" x2="23.018" y2="22.706" gradientUnits="userSpaceOnUse"><stop stop-color="#B68C74"/><stop offset="1" stop-color="#865F46"/></linearGradient><linearGradient id="paint3_linear_439_3706" x1="19.287" y1="6.417" x2="24.787" y2="6.417" gradientUnits="userSpaceOnUse"><stop stop-color="#B68C74"/><stop offset="1" stop-color="#865F46"/></linearGradient><linearGradient id="paint4_linear_439_3706" x1="4.162" y1="23.228" x2="9.662" y2="23.228" gradientUnits="userSpaceOnUse"><stop stop-color="#B68C74"/><stop offset="1" stop-color="#865F46"/></linearGradient><linearGradient id="paint5_linear_439_3706" x1="34.338" y1="23.228" x2="39.838" y2="23.228" gradientUnits="userSpaceOnUse"><stop stop-color="#B68C74"/><stop offset="1" stop-color="#865F46"/></linearGradient><linearGradient id="paint6_linear_439_3706" x1="6.875" y1="13.503" x2="19.287" y2="13.503" gradientUnits="userSpaceOnUse"><stop stop-color="#B68C74"/><stop offset="1" stop-color="#865F46"/></linearGradient><linearGradient id="paint7_linear_439_3706" x1="24.787" y1="13.503" x2="37.125" y2="13.503" gradientUnits="userSpaceOnUse"><stop stop-color="#B68C74"/><stop offset="1" stop-color="#865F46"/></linearGradient></defs></svg>
